X:7799
T:Untitled Strathspey 2
O:england
M:4/4
L:1/8
S:Northern Fiddler 192(b)
S:Danny O'Donnell
K:F
EFAF cFAF|CFAF D<G G2|CFAF cAfd|1cBAG (3FFF F2A2:||2cBAG (3FFF FA||
cfaf ({a}g)faf|cfaf e<g g2|cfaf ({a}g)faf|({a}g)faf (3fffA A2f2|
cfaf ({a}g)faf|cfgf e<g g2|f<a d<f c<f Ad|cBAG (3FFF F2||
